X:1
T: Scarborough Fair Begeleiding 1 Lute
M: 3/4
L: 1/8
Q:1/4=60
K:D
V:2
z/2B,/2D/2C/2A,/2B,/2 E,/2B,/2A,/2B,/2F,/2G,/2|E,/2B,/2D/2C/2A,/2B,/2 E,/2B,/2A,/2B,/2F,/2G,/2|E,/2B,/2D/2C/2A,/2B,/2 E,/2B,/2A,/2B,/2F,/2G,/2|D,/2A,/2D,/2E,/2F,/2A,/2 E,/2B,/2D/2C/2A,/2B,/2|
E,/2B,/2A,/2B,/2F,/2G,/2 G,/2B,/2D/2B,/2G,/2B,/2|E,/2B,/2E/2B,/2E,/2B,/2 G,/2D/2A,/2C/2E/2=C/2|E,/2B,/2D/2^C/2A,/2B,/2 E,/2B,/2A,/2B,/2F,/2G,/2|E,/2B,/2D/2C/2A,/2B,/2 E,/2B,/2A,/2B,/2F,/2G,/2|
E,/2B,/2E/2B,/2E,/2B,/2 G,/2B,/2D/2B,/2D/2B,/2|G,/2B,/2F,/2A,/2E,/2G,/2 D,/2A,/2D/2A,/2G,/2A,/2|F,/2A,/2E,/2A,/2D,/2A,/2 E,/2G,/2B,/2G,/2E,/2G,/2|D,/2F,/2A,/2F,/2E,/2G,/2 D,/2F,/2E,/2G,/2F,/2A,/2|
E,/2B,/2D/2C/2A,/2B,/2 E,/2B,/2A,/2B,/2F,/2G,/2|E,/2B,/2D/2C/2A,/2B,/2 E,/2B,/2A,/2B,/2F,/2G,/2|E,/2B,/2D/2C/2A,/2B,/2 E,/2B,/2A,/2B,/2F,/2G,/2|D,/2A,/2E,/2A,/2D,/2A,/2 E,/2B,/2D/2C/2A,/2B,/2|
E,/2B,/2A,/2B,/2F,/2A,/2 G,/2B,/2D/2B,/2G,/2B,/2|E,/2B,/2E/2B,/2E,/2B,/2 G,/2D/2A,/2C/2E/2=C/2|E,/2B,/2D/2^C/2A,/2B,/2 E,/2B,/2A,/2B,/2F,/2A,/2|E,/2G,/2A,/2B,/2A,/2F,/2 E,/2G,/2A,/2B,/2A,/2F,/2|
E,/2B,/2E/2B,/2E,/2B,/2 G,/2B,/2D/2B,/2D/2B,/2|G,/2B,/2F,/2A,/2E,/2G,/2 D,/2A,/2D/2A,/2G,/2A,/2|F,/2A,/2E,/2A,/2D,/2A,/2 E,/2G,/2B,/2G,/2E,/2G,/2|D,/2F,/2A,/2F,/2E,/2G,/2 D,/2F,/2E,/2G,/2F,/2A,/2|
E,/2B,/2A,/2B,/2G,/2B,/2 F,/2B,/2E,/2B,/2D,/2B,/2|E,/2B,/2F,/2B,/2G,/2B,/2 E,/2G,/2A,/2B,/2A,/2G,/2|E,/2B,/2D/2C/2A,/2B,/2 E,/2B,/2A,/2B,/2F,/2G,/2|D,/2A,/2E,/2A,/2D,/2A,/2 E,/2B,/2D/2C/2A,/2B,/2|
E,/2B,/2A,/2B,/2F,/2A,/2 G,/2B,/2D/2B,/2G,/2B,/2|E,/2B,/2E/2B,/2E,/2B,/2 G,/2D/2A,/2C/2E/2=C/2|E,/2B,/2D/2^C/2A,/2B,/2 E,/2B,/2A,/2B,/2F,/2A,/2|E,/2G,/2A,/2B,/2A,/2F,/2 E,/2G,/2A,/2B,/2A,/2F,/2|
E,/2B,/2E/2B,/2E,/2B,/2 G,/2B,/2D/2B,/2D/2B,/2|G,/2B,/2F,/2A,/2E,/2G,/2 D,/2A,/2D/2A,/2G,/2A,/2|F,/2A,/2E,/2A,/2D,/2A,/2 E,/2G,/2B,/2G,/2E,/2G,/2|D,/2F,/2A,/2F,/2E,/2G,/2 D,/2F,/2E,/2G,/2F,/2A,/2|
E,/2B,/2A,/2B,/2G,/2B,/2 F,/2B,/2E,/2B,/2D,/2B,/2|E,/2B,/2F,/2B,/2G,/2B,/2 E,/2G,/2A,/2B,/2A,/2G,/2|E,/2B,/2D/2C/2A,/2B,/2 E,/2B,/2A,/2B,/2F,/2G,/2|D,/2A,/2E,/2A,/2D,/2A,/2 E,/2B,/2D/2C/2A,/2B,/2|
E,/2B,/2A,/2B,/2F,/2A,/2 G,/2B,/2D/2B,/2G,/2B,/2|E,/2B,/2E/2B,/2E,/2B,/2 G,/2D/2A,/2C/2E/2=C/2|E,/2B,/2D/2^C/2A,/2B,/2 E,/2B,/2A,/2B,/2F,/2A,/2|E,/2G,/2A,/2B,/2A,/2F,/2 E,/2G,/2A,/2B,/2A,/2F,/2|
E,/2B,/2E/2B,/2E,/2B,/2 G,/2B,/2D/2B,/2D/2B,/2|G,/2B,/2F,/2A,/2E,/2G,/2 D,/2A,/2D/2A,/2G,/2A,/2|F,/2A,/2E,/2A,/2D,/2A,/2 E,/2G,/2B,/2G,/2E,/2G,/2|D,/2F,/2A,/2F,/2E,/2G,/2 D,/2F,/2E,/2G,/2F,/2A,/2|
E,/2B,/2D/2C/2A,/2B,/2 E,/2B,/2A,/2B,/2F,/2G,/2|E,/2B,/2D/2C/2A,/2B,/2 E,/2B,/2A,/2B,/2F,/2G,/2|E,/2G,/2B,/2G,/2A,/2D/2 [B,2E,2]
Flute / clarinet 2
